X:6261
T:Star of Kilkenny, The
T:Thady Casey's
O:england
R:reel
D:John Williams
M:C|
K:Em
~B3A Bded|BdAc BE~E2|BAGA (3Bcd ef|1 gfed Bded:|2 gfed Bdef||
g2ge dB~B2|dg~g2 Bdef|gfga (3bag af|1 gfed Bdef:|2 gfed Bded||


